X:1
T:Title
%%score { ( 1 3 ) | 2 }
L:1/8
Q:1/4=100
M:4/4
K:A
V:1 treble nm="Grand Piano"
V:3 treble 
V:2 bass 
V:1
 [Ec]>[Ec] [DB]>[Ec] [CA]2 [EG]2 | [DF]>[EG] [FA]>[^EB] [=Ec]2 z2 | [Fd]>c B>^A c2 B2 | %3
w: E.~S.~Lorenz * * * * *|||
 G>F G>F [CE]4 | [CE]>[CE] ^E>E F2 F2 | [C^EG]>[B,EG] [A,F]>[CEG] [CFA]2 z2 | %6
w: |||
 [FB]>[FA] [^EG]>[FA] [Ec][CA]CF | E2 B2 [CA]4 | c4 z4 | c>B ^A>B E2 z2 | B4 z4 | %11
w: |||||
 [DB]>[CA] [B,G]>[B,A] [Ec]2 z2 | [^Ec]>[Ec] [EB]>[Ec] A>G F2 | %13
w: ||
 [^DB]>[DB] [DA]>[DB] [B,EG]>[A,B,F] [G,B,E]2 | %14
w: |
[M:17/16] [A,EA]>Bc>de>cC3/2F[Q:1/4=97][Q:1/4=94][Q:1/4=91][Q:1/4=88][Q:1/4=84][Q:1/4=81][Q:1/4=78] | %15
w: |
[M:4/4] E2 B2 [CA]4 |] %16
w: |
V:2
 [A,,A,]>[A,,A,] [A,,E,]>[A,,E,] [A,,A,]2 [C,A,]2 | [D,A,]>[D,A,] [D,A,]>[D,A,] [A,,A,]2 z2 | %2
 [E,G,]>[E,G,E] [E,G,D]>[E,F,C] [E,G,E]2 [E,G,D]2 | [E,B,D]>[E,B,D] [E,B,D]>[E,G,D] [A,,A,]4 | %4
 [A,,A,]>[A,,A,] [C,G,C]>[C,B,C] [F,A,C]2 [F,A,]2 | C,>C, C,>C, F,2 z2 | %6
 [D,D]>[D,D] [D,D]>[D,A,] [A,,A,][A,,E,]C,F, | E,2 [E,D]2 [A,,E,]4 | %8
 [A,E]>A, A,>[K:treble][A,C] [A,F]2[K:bass] [A,E]2 | [E,G,E]>[E,G,D] [E,F,C]>[E,G,D] [E,G,B,]2 z2 | %10
 [E,G,D]>[E,G,] [E,G,]>[E,B,] [E,A,E]2 [E,G,D]2 | [A,,E,]>[A,,E,] [A,,E,]>[A,,E,] [A,,A,]2 z2 | %12
 [C,G,]>[C,C] [C,C]>[C,C] [F,CF]>[F,B,C] [F,A,C]2 | [B,,F,]>[B,,B,] [B,,B,]>[B,,B,] E,>E, E,>D, | %14
[M:17/16] C,>[E,G,E][K:treble][A,E]>[B,E][CE]>[A,EA][K:bass]C,3/2F, |[M:4/4] E,2 [E,D]2 [A,,E,]4 |] %16
V:3
 x8 | x8 | x8 | x8 | x8 | x8 | x8 | x8 | z z/ E/ E>A d2 c2 | x8 | z z/ D/ D>G c2 B2 | x8 | x8 | %13
 x8 |[M:17/16] x17/2 |[M:4/4] x8 |] %16

